X: 12071
T: Wandering Willie
R: waltz
B: Gow's Collection
B: RSCDS 12-7
N: Alternative tune for The Yellow Haired Laddie
M: 3/4
L: 1/8
%--------------------
K: F
|: "C7"c3BAG | "F"F3GF2 \
| "C7"G3FG2 | "F"A2"Bb"d4 \
|  "C7"c3BAG | "F"F3GA2 \
| "A"A3^GA2 | "Dm"D6 \
:: "Dm"A2d2"A7"^c2 | "Dm"d3ef2 |
| "C7"c3dcB | "F"A3Bc2 \
|1  "Dm"A2d2"A7"^c2 | "Dm"d3ef2 | "A"A2^G2A2 | "Dm"D6 \
:|2"Dm"A2d2e2 | f3ga2 | "A"A3^GA2 | "Dm"D6 |]
%%center Book12/12071-Wandering_Willie-1.abc

%%sep 1 1 500
%%sep 1 1 500

